X: 1838
T: The Munster Lass
M:6/8
L:1/8
B:O'Neill's 1838
Z:"Transcribed by Bob Safranek, rjs@gsp.org"
Z:probably should be a repeat at start of B part
K:F
C | FAc {g}fef | g>fe f2 f | FAc  fed |    c>BA G2 A |
    FAc {g}fef | gfe  fga  | g>fe fed |    cBA  G2  :|
b | agf    gfe | fcA  F2 b | agf  gcA | {c}B>AB G2 b |
    agf    gfe | fed  cBA  | Bdg  Acf | {f}ede  f2  :|


